rospo-icon-theme-classic-common/32x32/apps/distributor-logo-freebsd.svg

<svg height="32" viewBox="0 0 32 32" width="32" xmlns="http://www.w3.org/2000/svg"><path d="m6.4746094 3.0194972c-1.1709105.0972415-2.9269936.9354463-3.7382813 2.2207032-1.0060976 1.5941738-.772578 2.4045775-.7226562 3.1699218.049922.7653444.2007433 1.4514528.4414062 2.1621098.3648583 1.077435.966455 1.93159 1.4902344 2.871093-.5538495 1.458431-.9415483 2.973644-.9453125 4.546875-.000004.0033-.000004.0065 0 .0098-.0000008 7.132324 5.8676763 13.000001 13 13 7.132324.000001 13.000001-5.867676 13-13v-.0059c-.0025-1.575487-.391076-3.092072-.945312-4.552735.523672-.938873 1.125277-1.791374 1.490234-2.86914.240694-.7106779.391497-1.39675.441406-2.1620688.04991-.7653527.282952-1.5760567-.722656-3.1699558-.53998-.855268-1.52612-1.6246483-2.447266-1.9492188-.918874-.3237698-1.699663-.3219314-2.339844-.2636718-.397122.0351253-.788125.1043756-1.177734.2011718-1.765422.4267367-3.315681 1.2498776-4.880859 2.2382813-.805727-.1569754-1.581736-.4645671-2.40625-.4667969-.0046-.0000078-.0091-.0000078-.01367 0-.828603.0005229-1.610033.3080117-2.419924.4648438-1.563903-.9872787-3.112923-1.8099308-4.8769531-2.2363282-.3907551-.0970794-.78311-.1661493-1.1816407-.2011718-.3312651-.0298694-.6771792-.038353-1.0449218-.0078126z" opacity=".2"/><path d="m6.4746094 2.0195312c-1.1709105.0972415-2.9269936.9354463-3.7382813 2.2207032-1.0060976 1.5941738-.772578 2.4045775-.7226562 3.1699218.0499217.7653444.2007433 1.4514528.4414062 2.1621094.3648583 1.0774354.966455 1.9315904 1.4902344 2.8710934-.5538495 1.458431-.9415483 2.973644-.9453125 4.546875-.000004.0033-.000004.0065 0 .0098-.0000008 7.132324 5.8676763 13.000001 13 13 7.132324.000001 13.000001-5.867676 13-13v-.005934c-.0025-1.575487-.391076-3.092072-.945312-4.552735.523672-.938873 1.125277-1.791374 1.490234-2.8691404.240694-.7106775.391497-1.3967496.441406-2.1620684.04991-.7653187.282952-1.5760227-.722656-3.1699218-.53998-.855268-1.52612-1.6246483-2.447266-1.9492188-.918874-.3237698-1.699663-.3219314-2.339844-.2636718-.397122.0351253-.788125.1043756-1.177734.2011718-1.765422.4267367-3.315681 1.2498776-4.880859 2.2382813-.805727-.1569754-1.581736-.4645671-2.40625-.4667969-.0046-.0000078-.0091-.0000078-.01367 0-.828603.0005229-1.610033.3080117-2.419924.4648438-1.563903-.9872787-3.112923-1.8099308-4.8769531-2.2363282-.3907551-.0970794-.78311-.1661493-1.1816407-.2011718-.3312651-.0298694-.6771792-.038353-1.0449218-.0078126z" fill="#fb5140"/><path d="m6.8046875 7.0058254c-.3243676.026938-.546876.1494556-.6855469.3691406-.1976693.3132094-.1455008 1.1152972.125 1.9140625.2688318.7938675.9110306 2.0478915 1.5117188 3.0664065.9923071-1.44412 2.3565486-2.608488 3.9492186-3.371094-1.417309-.8947482-2.9411431-1.6283309-3.9492186-1.8710938-.2197795-.055559-.4163512-.0883976-.5917969-.1035156-.1315871-.0120472-.2512525-.0128856-.359375-.0039062zm18.3906245 0c-.108118-.00898-.227789-.00814-.359374.00391-.175409.015118-.372022.047956-.591797.1035156-1.117444.2690987-2.876238 1.129034-4.41211 2.1581994-.781681.5237669-.832265.5922123-.832031 1.1230466.000185.379389.03114.505153.222656.902344.530082 1.099238 1.714793 2.222347 2.728516 2.585937.44971.161387 1.025172.156095 1.238281-.01172.535162-.419603 2.107469-3.226731 2.566406-4.5820315.2705-.7987275.322631-1.6008153.125-1.9140625-.138699-.219683-.361191-.3422006-.685547-.3691386zm-9.195312 1.9941406a8.999999 8.999999 0 0 0 -9 9 8.999999 8.999999 0 0 0 9 9 8.999999 8.999999 0 0 0 9-9 8.999999 8.999999 0 0 0 -.816406-3.720703c-.104384.127674-.214206.250593-.375.376953-.446713.35175-.79211.34065-1.140625.34375s-.699099-.04817-1.054688-.175781c-1.396691-.500949-2.623486-1.709486-3.291015-3.09375-.209271-.43402-.322055-.903193-.322266-1.335938-.000123-.280276.043664-.7239299.28125-1.0898435a8.999999 8.999999 0 0 0 -2.28125-.3046875z" opacity=".2"/><path d="m6.8046875 6.0058594c-.3243676.026938-.546876.1494556-.6855469.3691406-.1976693.3132094-.1455008 1.1152972.125 1.9140625.2688318.7938671.9110306 2.0478915 1.5117188 3.0664065.9923071-1.4441204 2.3565486-2.608488 3.9492186-3.371094-1.417309-.8947482-2.9411431-1.6283309-3.9492186-1.8710938-.2197795-.055559-.4163512-.0883976-.5917969-.1035156-.1315871-.0120472-.2512525-.0128856-.359375-.0039062zm18.3906245 0c-.108118-.0089794-.227789-.008141-.359374.0039062-.175409.015118-.372022.0479565-.591797.1035156-1.117444.2691025-2.876238 1.1290378-4.41211 2.1582032-.781681.5237669-.832265.5922123-.832031 1.1230468.000185.379389.031143.5051532.222656.9023438.530082 1.099238 1.714793 2.222347 2.728516 2.585937.44971.161387 1.025172.156095 1.238281-.011718.535162-.419603 2.107469-3.2267307 2.566406-4.5820315.2705-.7987275.322631-1.6008153.125-1.9140625-.138699-.219685-.361191-.3422026-.685547-.3691406zm-9.195312 1.9941406a8.999999 8.999999 0 0 0 -9 9 8.999999 8.999999 0 0 0 9 9 8.999999 8.999999 0 0 0 9-9 8.999999 8.999999 0 0 0 -.816406-3.720703c-.104384.127674-.214206.250593-.375.376953-.446713.35175-.79211.34065-1.140625.34375-.348515.003122-.699099-.048172-1.054688-.175781-1.396691-.500949-2.623486-1.709486-3.291015-3.09375-.209271-.43402-.322055-.9031929-.322266-1.3359378-.000123-.2802765.043664-.7239301.28125-1.0898437a8.999999 8.999999 0 0 0 -2.28125-.3046875z" fill="#fff"/><path d="m24.982422 1.9980469c-.177582.0033062-.345814.014732-.50586.0292969-.397121.0351252-.788125.1043756-1.177734.2011718-1.765422.4267367-3.315681 1.2498776-4.880859 2.2382813-.805727-.1569754-1.581736-.4645671-2.40625-.4667969-.0046-.0000078-.009102-.0000078-.013672 0-.828603.0005229-1.610031.3080117-2.419922.4648438-1.563903-.9872787-3.112923-1.8099308-4.8769531-2.2363282-.3907551-.0970794-.78311-.1661493-1.1816407-.2011718-.3312651-.0298695-.6771792-.038353-1.0449218-.0078126-1.1709105.0972415-2.9269936.9354463-3.7382813 2.2207032-.8704397 1.3792222-.8116865 2.1653286-.7480469 2.8496094.0671086-.4887808.259995-1.0762853.7480469-1.8496094.8112877-1.2852569 2.5673708-2.1234617 3.7382813-2.2207032.3677426-.0305404.7136567-.0220568 1.0449218.0078126.3985307.0350225.7908856.1040924 1.1816407.2011718 1.7640301.4263974 3.3130501 1.2490495 4.8769531 2.2363282.809891-.1568322 1.591319-.4643209 2.419922-.4648438.00457-.0000078.009072-.0000078.013672 0 .824514.0022298 1.600523.3098215 2.40625.4667969 1.565178-.9884037 3.115437-1.8115446 4.880859-2.2382813.389609-.0967962.780613-.1660465 1.177734-.2011718.640181-.0582596 1.42097-.060098 2.339844.2636718.921146.3245705 1.907286 1.0939508 2.447266 1.9492188.487814.7731908.680884 1.3607902.748047 1.8496094.063543-.6843205.121969-1.4706249-.748047-2.8496094-.53998-.855268-1.52612-1.6246483-2.447266-1.9492188-.689155-.2428273-1.301239-.3028873-1.833984-.2929687zm-21.2539064 11.0722651c-.4308946 1.265103-.7252862 2.570191-.7285156 3.919922-.000004.0033-.000004.006466 0 .009766 0 .181723.0198017.359058.0273438.539062.0684615-1.411468.4175124-2.77787.9179687-4.095703-.070553-.12655-.1441888-.248838-.2167969-.373047zm24.5429684 0c-.072386.123743-.14646.24499-.216796.371094.499878 1.317406.849323 2.683177.917968 4.09375.007434-.178716.027344-.354746.027344-.535156v-.005859c-.002144-1.351398-.297359-2.657225-.728516-3.923829z" fill="#fff" opacity=".2"/></svg>

<svg xmlns="http://www.w3.org/2000/svg" width="32" height="32" version="1.1" viewBox="0 0 32 32">
 <path style="opacity:0.2" d="M 6.4746094,3.0194972 C 5.3036989,3.1167387 3.5476158,3.9549435 2.7363281,5.2402004 1.7302305,6.8343742 1.9637501,7.6447779 2.0136719,8.4101222 c 0.049922,0.7653444 0.2007433,1.4514528 0.4414062,2.1621098 0.3648583,1.077435 0.966455,1.93159 1.4902344,2.871093 C 3.391463,14.901756 3.0037642,16.416969 3,17.9902 c -4e-6,0.0033 -4e-6,0.0065 0,0.0098 -8e-7,7.132324 5.8676763,13.000001 13,13 7.132324,1e-6 13.000001,-5.867676 13,-13 v -0.0059 c -0.0025,-1.575487 -0.391076,-3.092072 -0.945312,-4.552735 0.523672,-0.938873 1.125277,-1.791374 1.490234,-2.86914 0.240694,-0.7106779 0.391497,-1.39675 0.441406,-2.1620688 C 30.036238,7.6448035 30.26928,6.8340995 29.263672,5.2402004 28.723692,4.3849324 27.737552,3.6155521 26.816406,3.2909816 25.897532,2.9672118 25.116743,2.9690502 24.476562,3.0273098 24.07944,3.0624351 23.688437,3.1316854 23.298828,3.2284816 21.533406,3.6552183 19.983147,4.4783592 18.417969,5.4667629 17.612242,5.3097875 16.836233,5.0021958 16.011719,4.999966 c -0.0046,-7.8e-6 -0.0091,-7.8e-6 -0.01367,0 -0.828603,5.229e-4 -1.610033,0.3080117 -2.419924,0.4648438 C 12.014222,4.4775311 10.465202,3.654879 8.7011719,3.2284816 8.3104168,3.1314022 7.9180619,3.0623323 7.5195312,3.0273098 7.1882661,2.9974404 6.842352,2.9889568 6.4746094,3.0194972 Z"/>
 <path style="fill:#fb5140" d="M 6.4746094,2.0195312 C 5.3036989,2.1167727 3.5476158,2.9549775 2.7363281,4.2402344 1.7302305,5.8344082 1.9637501,6.6448119 2.0136719,7.4101562 2.0635936,8.1755006 2.2144152,8.861609 2.4550781,9.5722656 2.8199364,10.649701 3.4215331,11.503856 3.9453125,12.443359 3.391463,13.90179 3.0037642,15.417003 3,16.990234 c -4e-6,0.0033 -4e-6,0.0065 0,0.0098 -8e-7,7.132324 5.8676763,13.000001 13,13 7.132324,1e-6 13.000001,-5.867676 13,-13 V 16.9941 C 28.9975,15.418613 28.608924,13.902028 28.054688,12.441365 28.57836,11.502492 29.179965,10.649991 29.544922,9.5722246 29.785616,8.8615471 29.936419,8.175475 29.986328,7.4101562 30.036238,6.6448375 30.26928,5.8341335 29.263672,4.2402344 28.723692,3.3849664 27.737552,2.6155861 26.816406,2.2910156 25.897532,1.9672458 25.116743,1.9690842 24.476562,2.0273438 24.07944,2.0624691 23.688437,2.1317194 23.298828,2.2285156 21.533406,2.6552523 19.983147,3.4783932 18.417969,4.4667969 17.612242,4.3098215 16.836233,4.0022298 16.011719,4 c -0.0046,-7.8e-6 -0.0091,-7.8e-6 -0.01367,0 -0.828603,5.229e-4 -1.610033,0.3080117 -2.419924,0.4648438 C 12.014222,3.4775651 10.465202,2.654913 8.7011719,2.2285156 8.3104168,2.1314362 7.9180619,2.0623663 7.5195312,2.0273438 7.1882661,1.9974744 6.842352,1.9889908 6.4746094,2.0195312 Z"/>
 <path style="opacity:0.2" d="M 6.8046875,7.0058254 C 6.4803199,7.0327634 6.2578115,7.155281 6.1191406,7.374966 5.9214713,7.6881754 5.9736398,8.4902632 6.2441406,9.2890285 6.5129724,10.082896 7.1551712,11.33692 7.7558594,12.355435 8.7481665,10.911315 10.112408,9.746947 11.705078,8.984341 10.287769,8.0895928 8.7639349,7.3560101 7.7558594,7.1132472 7.5360799,7.0576882 7.3395082,7.0248496 7.1640625,7.0097316 7.0324754,6.9976844 6.91281,6.996846 6.8046875,7.0058254 Z m 18.3906245,0 c -0.108118,-0.00898 -0.227789,-0.00814 -0.359374,0.00391 -0.175409,0.015118 -0.372022,0.047956 -0.591797,0.1035156 C 23.126697,7.3823497 21.367903,8.242285 19.832031,9.2714504 19.05035,9.7952173 18.999766,9.8636627 19,10.394497 c 1.85e-4,0.379389 0.03114,0.505153 0.222656,0.902344 0.530082,1.099238 1.714793,2.222347 2.728516,2.585937 0.44971,0.161387 1.025172,0.156095 1.238281,-0.01172 0.535162,-0.419603 2.107469,-3.226731 2.566406,-4.5820315 0.2705,-0.7987275 0.322631,-1.6008153 0.125,-1.9140625 C 25.74216,7.155281 25.519668,7.0327634 25.195312,7.0058254 Z M 16,8.999966 a 8.999999,8.999999 0 0 0 -9,9 8.999999,8.999999 0 0 0 9,9 8.999999,8.999999 0 0 0 9,-9 8.999999,8.999999 0 0 0 -0.816406,-3.720703 c -0.104384,0.127674 -0.214206,0.250593 -0.375,0.376953 -0.446713,0.35175 -0.79211,0.34065 -1.140625,0.34375 -0.348515,0.0031 -0.699099,-0.04817 -1.054688,-0.175781 C 20.21659,14.323236 18.989795,13.114699 18.322266,11.730435 18.112995,11.296415 18.000211,10.827242 18,10.394497 17.999877,10.114221 18.043664,9.6705671 18.28125,9.3046535 A 8.999999,8.999999 0 0 0 16,8.999966 Z"/>
 <path style="fill:#ffffff" d="M 6.8046875 6.0058594 C 6.4803199 6.0327974 6.2578115 6.155315 6.1191406 6.375 C 5.9214713 6.6882094 5.9736398 7.4902972 6.2441406 8.2890625 C 6.5129724 9.0829296 7.1551712 10.336954 7.7558594 11.355469 C 8.7481665 9.9113486 10.112408 8.746981 11.705078 7.984375 C 10.287769 7.0896268 8.7639349 6.3560441 7.7558594 6.1132812 C 7.5360799 6.0577222 7.3395082 6.0248836 7.1640625 6.0097656 C 7.0324754 5.9977184 6.91281 5.99688 6.8046875 6.0058594 z M 25.195312 6.0058594 C 25.087194 5.99688 24.967523 5.9977184 24.835938 6.0097656 C 24.660529 6.0248836 24.463916 6.0577221 24.244141 6.1132812 C 23.126697 6.3823837 21.367903 7.242319 19.832031 8.2714844 C 19.05035 8.7952513 18.999766 8.8636967 19 9.3945312 C 19.000185 9.7739202 19.031143 9.8996844 19.222656 10.296875 C 19.752738 11.396113 20.937449 12.519222 21.951172 12.882812 C 22.400882 13.044199 22.976344 13.038907 23.189453 12.871094 C 23.724615 12.451491 25.296922 9.6443633 25.755859 8.2890625 C 26.026359 7.490335 26.07849 6.6882472 25.880859 6.375 C 25.74216 6.155315 25.519668 6.0327974 25.195312 6.0058594 z M 16 8 A 8.999999 8.999999 0 0 0 7 17 A 8.999999 8.999999 0 0 0 16 26 A 8.999999 8.999999 0 0 0 25 17 A 8.999999 8.999999 0 0 0 24.183594 13.279297 C 24.07921 13.406971 23.969388 13.52989 23.808594 13.65625 C 23.361881 14.008 23.016484 13.9969 22.667969 14 C 22.319454 14.003122 21.96887 13.951828 21.613281 13.824219 C 20.21659 13.32327 18.989795 12.114733 18.322266 10.730469 C 18.112995 10.296449 18.000211 9.8272761 18 9.3945312 C 17.999877 9.1142547 18.043664 8.6706011 18.28125 8.3046875 A 8.999999 8.999999 0 0 0 16 8 z"/>
 <path style="opacity:0.2;fill:#ffffff" d="M 24.982422 1.9980469 C 24.80484 2.0013531 24.636608 2.0127789 24.476562 2.0273438 C 24.079441 2.062469 23.688437 2.1317194 23.298828 2.2285156 C 21.533406 2.6552523 19.983147 3.4783932 18.417969 4.4667969 C 17.612242 4.3098215 16.836233 4.0022298 16.011719 4 C 16.007119 3.9999922 16.002617 3.9999922 15.998047 4 C 15.169444 4.0005229 14.388016 4.3080117 13.578125 4.4648438 C 12.014222 3.4775651 10.465202 2.654913 8.7011719 2.2285156 C 8.3104168 2.1314362 7.9180619 2.0623663 7.5195312 2.0273438 C 7.1882661 1.9974743 6.842352 1.9889908 6.4746094 2.0195312 C 5.3036989 2.1167727 3.5476158 2.9549775 2.7363281 4.2402344 C 1.8658884 5.6194566 1.9246416 6.405563 1.9882812 7.0898438 C 2.0553898 6.601063 2.2482762 6.0135585 2.7363281 5.2402344 C 3.5476158 3.9549775 5.3036989 3.1167727 6.4746094 3.0195312 C 6.842352 2.9889908 7.1882661 2.9974744 7.5195312 3.0273438 C 7.9180619 3.0623663 8.3104168 3.1314362 8.7011719 3.2285156 C 10.465202 3.654913 12.014222 4.4775651 13.578125 5.4648438 C 14.388016 5.3080116 15.169444 5.0005229 15.998047 5 C 16.002617 4.9999922 16.007119 4.9999922 16.011719 5 C 16.836233 5.0022298 17.612242 5.3098215 18.417969 5.4667969 C 19.983147 4.4783932 21.533406 3.6552523 23.298828 3.2285156 C 23.688437 3.1317194 24.079441 3.0624691 24.476562 3.0273438 C 25.116743 2.9690842 25.897532 2.9672458 26.816406 3.2910156 C 27.737552 3.6155861 28.723692 4.3849664 29.263672 5.2402344 C 29.751486 6.0134252 29.944556 6.6010246 30.011719 7.0898438 C 30.075262 6.4055233 30.133688 5.6192189 29.263672 4.2402344 C 28.723692 3.3849664 27.737552 2.6155861 26.816406 2.2910156 C 26.127251 2.0481883 25.515167 1.9881283 24.982422 1.9980469 z M 3.7285156 13.070312 C 3.297621 14.335415 3.0032294 15.640503 3 16.990234 C 2.999996 16.993534 2.999996 16.9967 3 17 C 3 17.181723 3.0198017 17.359058 3.0273438 17.539062 C 3.0958053 16.127594 3.4448562 14.761192 3.9453125 13.443359 C 3.8747595 13.316809 3.8011237 13.194521 3.7285156 13.070312 z M 28.271484 13.070312 C 28.199098 13.194055 28.125024 13.315302 28.054688 13.441406 C 28.554566 14.758812 28.904011 16.124583 28.972656 17.535156 C 28.98009 17.35644 29 17.18041 29 17 L 29 16.994141 C 28.997856 15.642743 28.702641 14.336916 28.271484 13.070312 z"/>
</svg>
